X: 441
T: The Loupin' Jig
C: Bert Murray
R: jig
B: Bert Murray's "Bon Accord Collection" 1999 p.44
%
Z: 2011 John Chambers <jc:trillian.mit.edu>
N: The beats and the phrase boundaries don't line up.
M: 6/8
L: 1/8
K: Em
|:\
vE>ee (e2f) | g>fe d>^cB | A>FA d>AF | D>DE F>ED |\
 E>ee (e2f) | g>fe d>^cB | A>FA d>AF | E>FE E2 :|
uF |\
G>AB B>GE | B,>EG B>AG | A>dA F>AF | D>DE F>ED |\
G>AB B>GE | B,>EG B>AG | A>FA d>AF | E>FE (E2F) |
G2B B>AG | D2G B>AG | A>dA F>AF | D>DE F>ED |\
E>ee (e2f) | g>fe d>^c B | A>FA d>AF | E>FE E2 |]

%%sep 2 1 500

